src/assets/duotone/SaveAdd.svg

<svg width="24" height="24" viewBox="0 0 24 24"  xmlns="http://www.w3.org/2000/svg">
<path opacity="0.4" d="M16 8.98987V20.3499C16 21.7999 14.96 22.4099 13.69 21.7099L9.76001 19.5199C9.34001 19.2899 8.65999 19.2899 8.23999 19.5199L4.31 21.7099C3.04 22.4099 2 21.7999 2 20.3499V8.98987C2 7.27987 3.39999 5.87988 5.10999 5.87988H12.89C14.6 5.87988 16 7.27987 16 8.98987Z" />
<path d="M22 5.10999V16.47C22 17.92 20.96 18.53 19.69 17.83L16 15.77V8.98999C16 7.27999 14.6 5.88 12.89 5.88H8V5.10999C8 3.39999 9.39999 2 11.11 2H18.89C20.6 2 22 3.39999 22 5.10999Z" />
<path d="M11 11.25H9.75V10C9.75 9.59 9.41 9.25 9 9.25C8.59 9.25 8.25 9.59 8.25 10V11.25H7C6.59 11.25 6.25 11.59 6.25 12C6.25 12.41 6.59 12.75 7 12.75H8.25V14C8.25 14.41 8.59 14.75 9 14.75C9.41 14.75 9.75 14.41 9.75 14V12.75H11C11.41 12.75 11.75 12.41 11.75 12C11.75 11.59 11.41 11.25 11 11.25Z" />
</svg>

<?xml version="1.0" encoding="UTF-8"?>
<svg width="24" height="24" viewBox="0 0 24 24" xmlns="http://www.w3.org/2000/svg">
 <path d="m16 8.9899v11.36c0 1.45-1.04 2.06-2.31 1.36l-3.93-2.19c-0.42-0.23-1.1-0.23-1.52 0l-3.93 2.19c-1.27 0.7-2.31 0.09-2.31-1.36v-11.36c0-1.71 1.4-3.11 3.11-3.11h7.78c1.71 0 3.11 1.4 3.11 3.11z" opacity=".4"/>
 <path d="m22 5.11v11.36c0 1.45-1.04 2.06-2.31 1.36l-3.69-2.06v-6.78c0-1.71-1.4-3.11-3.11-3.11h-4.89v-0.77001c0-1.71 1.4-3.11 3.11-3.11h7.78c1.71 0 3.11 1.4 3.11 3.11z"/>
 <path d="m11 11.25h-1.25v-1.25c0-0.41-0.34-0.75-0.75-0.75s-0.75 0.34-0.75 0.75v1.25h-1.25c-0.41 0-0.75 0.34-0.75 0.75s0.34 0.75 0.75 0.75h1.25v1.25c0 0.41 0.34 0.75 0.75 0.75s0.75-0.34 0.75-0.75v-1.25h1.25c0.41 0 0.75-0.34 0.75-0.75s-0.34-0.75-0.75-0.75z"/>
</svg>
